src/assets/protocols/junky.svg

<svg width="35" height="41" viewBox="0 0 35 41" fill="none" xmlns="http://www.w3.org/2000/svg"><path d="M32.1158 40.7838C31.5684 37.0457 29.6012 33.446 29.6012 33.446C30.5422 32.537 32.894 28.3965 33.2705 25.8854C33.6469 23.3726 33.6401 20.2108 32.638 16.9793C31.7258 14.035 29.881 10.795 29.881 10.795C31.6393 10.4399 32.1158 9.47826 32.1158 9.47826C34.3251 6.05818 32.777 1.66629 28.533 1.54396C24.2906 1.42163 23.7971 5.60455 23.7971 5.60455C18.6188 2.55316 11.1904 4.95214 11.1904 4.95214C10.3867 0.891546 6.41726 1.00028 6.41726 1.00028C2.17487 1.12261 0.626786 5.51451 2.83446 8.93458C2.83446 8.93458 3.31262 9.89621 5.07095 10.2513C5.07095 10.2513 3.3957 12.7675 2.26304 16.8383C1.43559 19.8081 1.33216 23.3013 1.70858 25.8124C2.085 28.3235 4.40967 31.9933 5.35073 32.9023C5.35073 32.9023 2.34724 37.3127 2.91827 40.5168" stroke="#73FF9F" stroke-width="2" stroke-miterlimit="10"></path></svg>

<svg xmlns="http://www.w3.org/2000/svg" fill="none" viewBox="0 0 35 41"><path stroke="#73FF9F" stroke-miterlimit="10" stroke-width="2" d="M32.116 40.784c-.548-3.738-2.515-7.338-2.515-7.338.941-.909 3.293-5.05 3.67-7.56.376-2.513.37-5.675-.633-8.907-.912-2.944-2.757-6.184-2.757-6.184 1.758-.355 2.235-1.317 2.235-1.317 2.21-3.42.661-7.812-3.583-7.934-4.242-.122-4.736 4.06-4.736 4.06-5.178-3.05-12.607-.652-12.607-.652C10.387.892 6.417 1 6.417 1c-4.242.123-5.79 4.515-3.583 7.935 0 0 .479.961 2.237 1.316 0 0-1.675 2.517-2.808 6.587-.827 2.97-.93 6.463-.554 8.974s2.7 6.181 3.642 7.09c0 0-3.004 4.41-2.433 7.615"/></svg>
